build/images/component-border.svg

<svg width="1201" height="308" fill="none" xmlns="http://www.w3.org/2000/svg"><g filter="url(#filter0_b_875_1804)"><path d="M1.5 1.5h1198v305H1.5V1.5z" stroke="#fff" stroke-opacity=".2"/></g><path d="M1200 287v20h-20M1 287v20h20M1200 21V1h-20M1 21V1h20" stroke="#fff"/><defs><filter id="filter0_b_875_1804" x="-49" y="-49" width="1299" height="406" filterUnits="userSpaceOnUse" color-interpolation-filters="sRGB"><feFlood flood-opacity="0" result="BackgroundImageFix"/><feGaussianBlur in="BackgroundImageFix" stdDeviation="25"/><feComposite in2="SourceAlpha" operator="in" result="effect1_backgroundBlur_875_1804"/><feBlend in="SourceGraphic" in2="effect1_backgroundBlur_875_1804" result="shape"/></filter></defs></svg>

<svg width="1201" height="308" viewBox="0 0 1201 308" fill="none" xmlns="http://www.w3.org/2000/svg">
<g filter="url(#filter0_b_875_1804)">
<path d="M1.5 1.5H1199.5V306.5H1.5V1.5Z" stroke="white" stroke-opacity="0.2"/>
</g>
<path d="M1200 287V307H1180" stroke="white"/>
<path d="M0.999999 287V307H21" stroke="white"/>
<path d="M1200 21V1H1180" stroke="white"/>
<path d="M0.999999 21V1H21" stroke="white"/>
<defs>
<filter id="filter0_b_875_1804" x="-49" y="-49" width="1299" height="406" filterUnits="userSpaceOnUse" color-interpolation-filters="sRGB">
<feFlood flood-opacity="0" result="BackgroundImageFix"/>
<feGaussianBlur in="BackgroundImageFix" stdDeviation="25"/>
<feComposite in2="SourceAlpha" operator="in" result="effect1_backgroundBlur_875_1804"/>
<feBlend mode="normal" in="SourceGraphic" in2="effect1_backgroundBlur_875_1804" result="shape"/>
</filter>
</defs>
</svg>
